X:1
T:Panama City, 86.86.86
T:Panama City, 86.86.86
T:Ada Rose Gibbs (1864-1905) 
T:Public Domain Courtesy of the Cyber Hymnal™
C:Ada Rose Gibbs (1864-1905)
Z:Public Domain
Z:Courtesy of the Cyber Hymnal™
%%score ( 1 2 ) ( 3 4 )
L:1/8
Q:1/4=107
M:4/4
K:A
V:1 treble 
V:2 treble 
V:3 bass 
V:4 bass 
V:1
 (AB) | [Ac]3 [Ad] (cB) (AB) | [Ac]3 [Ad] (cB) [EA]2 | [EG]3 [FA] [GB]2 [^^F^A]2 | [GB]6 (AB) | %5
 [Ac]3 [Ad] (cB) (AB) | [Ac]3 [Ad] (cB) [EA]2 | [EG]3 [FA] [GB]2 [EG]2 | [EA]6 [EA]2 | %9
 [EG]3 [EA] [GB]2 [GB]2 | A3 [GB] [Ac]2 [Ac]2 | [Bd]2 B2 [Ac]2 A2 | [GB]6 [GB]2 | %13
 [Ac]3 [GB] A2 [EA]2 | [DF]2 [DF]2 [FB]2 [FA]2 | [EG]2 [EG]2 [EG]2 (FG) | [EA]6 [EA]2 | %17
 [EG]3 [FA] [GB]2 [GB]2 | A3 [GB] [Ac]2 [Ac]2 | [Bd]2 B2 [Ac]2 A2 | [GB]6 [GB]2 | %21
 [Ac]3 [GB] A2 [EA]2 | [DF]2 [DF]2 [FB]2 [FA]2 | [EG]2 [EG]2 [EG]2 (FG) | [EA]6 |] %25
V:2
 A2 | x4 A2 A2 | x4 A2 x2 | x8 | x6 A2 | x4 A2 A2 | x4 A2 x2 | x8 | x8 | x8 | A3 x5 | x2 B2 A2 x2 | %12
 x8 | x4 A2 x2 | x8 | x6 E2 | x8 | x8 | A3 x5 | x2 B2 A2 x2 | x8 | x4 A2 x2 | x8 | x6 E2 | x6 |] %25
V:3
 (CD) | [A,E]3 [A,F] (ED) (CD) | [A,E]3 [A,F] (ED) [A,C]2 | [E,B,]3 [E,B,] [E,E]2 [E,E]2 | %4
 [E,E]6 (CD) | [A,E]3 [A,F] (ED) (CD) | [A,E]3 [A,F] (ED) [A,C]2 | [E,B,]3 [E,B,] [E,E]2 [E,D]2 | %8
 [A,C]6 [A,C]2 | [DE]3 [DE] [B,E]2 [E,E]2 | [CE]3 [B,E] [A,E]2 [A,E]2 | %11
 [G,E]2 [G,E]2 [A,E]2 [A,C]2 | [G,E]6 [E,E]2 | [A,E]3 [A,D] [A,C]2 [A,C]2 | %14
 [D,A,]2 [D,A,]2 [B,,D]2 [B,,D]2 | [E,D]2 [E,D]2 [E,D]2 [E,D]2 | [A,C]6 [A,C]2 | %17
 [E,B,]3 [E,B,] [E,E]2 [E,E]2 | [A,C]3 [A,D] [A,E]2 [A,E]2 | [G,E]2 [G,E]2 [A,E]2 [A,C]2 | %20
 [E,E]6 [E,E]2 | [A,E]3 [A,D] [A,C]2 [A,C]2 | [D,A,]2 [D,A,]2 [B,,D]2 [B,,D]2 | %23
 [E,D]2 [E,D]2 [E,D]2 [E,D]2 | [A,C]6 |] %25
V:4
 A,2 | x4 A,2 A,2 | x4 A,2 x2 | x8 | x6 A,2 | x4 A,2 A,2 | x4 A,2 x2 | x8 | x8 | x8 | x8 | x8 | %12
 x8 | x8 | x8 | x8 | x8 | x8 | x8 | x8 | x8 | x8 | x8 | x8 | x6 |] %25

